X:1
T:Homai le luci
T:Domenico Mazzocchi
T:Prima parte
T:Homai le luci
T:Source: Musice sacre e morali---Roma---L.Grignani---1640. Editor : André Vierendeels (23/08/18) Notes : Original clefs : C1, F4 Text by Abbate Saracini "Consideratione nella morte di Christo"
T:Sonetto
T:©
T:©
T:©
T:©
T:©
T:©
T:©
T:©
C:Domenico Mazzocchi
Z:©
%%score 1 { 2 | 3 }
L:1/8
Q:1/4=120
M:4/4
K:F
V:1 treble nm="Soprano" snm="S"
V:2 treble nm="MusicXML Part"
V:3 bass 
V:1
 z2 B2 B4 | z c dd/f/ B2 B2 | z _A2 A/G/ G2 G2 | z GFG _E2 E2 | z BBB =B3 c | c2 c2 z2 cc | %6
w: Ho- mai|le lu- ci er- ran- ti,|A- ni- ma gi- ra|al tuo Fat- to- re,|e sov- ra que- sto|le- gno de l'an-|
 c2 cd _e>e B2- | B2 BA B2 B2 | z dd_e e2 e2 | z _e e>d f>=B c2- | c2 =B2- c4 | z8 | z ddd d4- | %13
w: ti- che ru- i- ne al-|* to ri- te- gno,|ne le sue pe- ne|i fal- li tuoi ri- mi-|* ra. _||ne le sue pe|
 d2 cB A4 | z d d>_e e4- | e2 _A2 B4- | B4 A4- | B8 || z2 d2 B4 | z F_EF D4 | z _A2 A/G/ G2 G2 | %21
w: _ ne _ _|i fal- li tuoi|_ ri- mi-|* ra.|_|In van,|pur trop- po'il fai,|s'an- g'e so- spi- ra|
 z2 GG G2 GA | B>B c3 c F2 | G2 G2 z2 c2- | cccd _e2 ee | _ee Td>c B2 B2 | z G d2 dd d>_e | %27
w: per ca- du- co de-|sio, ca- du- co in|ge- gno, Dun-|* que as- pi- ran- do al|sem- pi- ter- no Re- gno,|so- spi- ra al- men per|
 c4 f2 Bc | c3 =B- c4 | z4 z2 z c | d2 dd d c/B/ A2 | B2 _e4 de | cd/c/ B4 A2- | B8 || z dcd B4 | %35
w: Dio, s'ei per te|spi- ra. _|So-|spi- ra al- men per _ _|Dio, s'ei per te|spi- * * * ra.|_|Ma non te- mer,|
 z BBB B3 B | B2 B_A A3 G | G2 G2 z A B2 | B>=B Bc c2 cd | _e>d Tdc/B/ cB/A/ G/_E/F/G/ | %40
w: ben che tre- man- te|fas- si l'im- mo- bil|cen- tro, e'in un|fran- ge, e dis- se- ra le|pie- * * * * * * * * * * *|
 C2 C2 z2 G2 | A2 AB B_E>EE/D/ | D2 D2 z4 | z ddd d3 d | B TA2 A/.^F/ G2 G2 | z dd_e e2 ed | %46
w: * tre, e'i|lu- mi hà il Ciel tor- bi- di'e|cas- si,|che per fer- mez- za|tua tre- ma la ter- ra,|per che tu spel- tri il|
 c2 f3 ffc | d2 d2 z2 _e2 | _e2 f2 g2 e2 | d4 d4 | z2 c4 B2- | B2 A2 A4 | G8 | z ddd d>d B2 | %54
w: cor, fran- gon- si i|sas- si, e|per a- pri- ti|gli'oc- chi,|il Ciel|_ gli ser-|ra|che per fer- mez- za tua|
 z TA2 A/^F/ G2 G2 | z dd_e e2 ed | c2 f3 ffc | d2 d2 z2 _e2 | _e3 e e3 d | %59
w: tre- ma la ter- ra,|per che tui spel- tri il|cor, fran- gon- si i|sas- si, e|per a- prir- ti|
"^b""^b" d/e/f/e/ d/c/B/A/ B/c/d/c/ B/A/G/F/ | G/F/G/A/ B/G/c/B/ A/G/A/B/ c/A/f/_e/ | %61
w: gli'oc- * * * * * * * * * * * * * * *||
 d3 (c/B/ A4) | z2 d2 _e4- | e4 z2 f2 | g3 G B4- | B4 B4- | B8 |] %67
w: * chi _ _|il Ciel,|_ il|Ciel gli ser-|* ra.|_|
V:2
 z8 | z8 | z8 | z8 |"^BC" z8 | z8 | z8 | z8 | z8 | z8 | z8 | z8 | z8 | z8 | z8 | z8 | z8 | z8 || %18
 z8 | z8 | z8 | z8 | z8 | z8 | z8 | z8 | z8 | z8 | z8 | z8 | z8 | z8 | z8 | z8 || z8 | z8 | z8 | %37
 z8 | z8 | z8 | z8 | z8 | z8 | z8 | z8 | z8 | z8 | z8 | z8 | z8 | z8 | z8 | z8 | z8 | z8 | z8 | %56
 z8 | z8 | z8 | z8 | z8 | z8 | z8 | z8 | z8 | z8 | z8 |] %67
V:3
 B,,8- | B,,8- | B,,4 _E,4- | E,8- | E,4 D,4 | C,8 | C,8- | C,4 G,,4 | G,8 |"^5 6" _A,8 | %10
 G,4 C,4- | C,2 D,2 _E,2 C,2 | B,,4 B,4 | ^F,8 |"^5 6" G,8 | _A,4 _E,4 | F,8 | B,,8 || B,,8 | %19
 B,,8- | B,,4 _E,4- | E,8 | _E,4 D,4 | C,8- | C,8- | C,4 G,,4 | G,8 | _A,8 | G,4 C,4- | %29
 C,2 D,2 _E,2 C,2 | B,,4 ^F,,4 | G,,4 G,4 | _A,2 _E,2 F,4 | B,,8 || B,,8- | B,,8- | B,,8 | _E,8 | %38
 D,4 C,4 | C,8- | C,8- | C,4 G,,4 | G,,8 | G,8- | G,8- | G,8 | _A,8 | G,4 C,4- | C,2 D,2 _E,2 C,2 | %49
 B,2 ^F,2 G,2 D,2 | E,2 ^F,2 G,2 B,,2 | C,2 _E,2 D,4 | G,,8 | G,8- | G,8- | G,8 | _A,8 | G,4 C,4- | %58
 C,2 D,2 _E,2 C,2 | B,,8 | _E,4 F,4 | B,4 ^F,4 | G,8 | _A,8 | _E,8 | F,8 | B,,8 |] %67

